assets/noun_1311158.svg

<svg viewBox="0 0 100 100" xmlns="http://www.w3.org/2000/svg"><path d="m71.3099412 34.1900588c1.4856784-1.4856784 1.4830605-3.8970571.0045067-5.3756109l-.1288958-.1288958c-1.4831895-1.4831895-3.8851344-1.4859698-5.3756109.0045067l-15.1073097 15.1073097c-.3880527.3880527-1.0237336.3815294-1.405263 0l-15.1073097-15.1073097c-1.4856784-1.4856784-3.8970571-1.4830605-5.3756109-.0045067l-.1288958.1288958c-1.4831895 1.4831895-1.4859698 3.8851344.0045067 5.3756109l15.1073097 15.1073097c.3880527.3880527.3815294 1.0237336 0 1.405263l-15.1073097 15.1073097c-1.4856784 1.4856784-1.4830605 3.8970571-.0045067 5.3756109l.1288958.1288958c1.4831895 1.4831895 3.8851344 1.4859698 5.3756109-.0045067l15.1073097-15.1073097c.3880527-.3880527 1.0237336-.3815294 1.405263 0l15.1073097 15.1073097c1.4856784 1.4856784 3.8970571 1.4830605 5.3756109.0045067l.1288958-.1288958c1.4831895-1.4831895 1.4859698-3.8851344-.0045067-5.3756109l-15.1073097-15.1073097c-.3880527-.3880527-.3815294-1.0237336 0-1.405263z"/></svg>

<svg xmlns="http://www.w3.org/2000/svg" xmlns:xlink="http://www.w3.org/1999/xlink" viewBox="0 0 100 100" version="1.1" x="0px" y="0px"><title>Close 7.10</title><desc>Created with Sketch.</desc><g stroke="none" stroke-width="1" fill="none" fill-rule="evenodd"><g fill-rule="nonzero" fill="#000000"><path d="M71.3099412,34.1900588 C72.7956196,32.7043804 72.7930017,30.2930017 71.3144479,28.8144479 L71.1855521,28.6855521 C69.7023626,27.2023626 67.3004177,27.1995823 65.8099412,28.6900588 L50.7026315,43.7973685 C50.3145788,44.1854212 49.6788979,44.1788979 49.2973685,43.7973685 L34.1900588,28.6900588 C32.7043804,27.2043804 30.2930017,27.2069983 28.8144479,28.6855521 L28.6855521,28.8144479 C27.2023626,30.2976374 27.1995823,32.6995823 28.6900588,34.1900588 L43.7973685,49.2973685 C44.1854212,49.6854212 44.1788979,50.3211021 43.7973685,50.7026315 L28.6900588,65.8099412 C27.2043804,67.2956196 27.2069983,69.7069983 28.6855521,71.1855521 L28.8144479,71.3144479 C30.2976374,72.7976374 32.6995823,72.8004177 34.1900588,71.3099412 L49.2973685,56.2026315 C49.6854212,55.8145788 50.3211021,55.8211021 50.7026315,56.2026315 L65.8099412,71.3099412 C67.2956196,72.7956196 69.7069983,72.7930017 71.1855521,71.3144479 L71.3144479,71.1855521 C72.7976374,69.7023626 72.8004177,67.3004177 71.3099412,65.8099412 L56.2026315,50.7026315 C55.8145788,50.3145788 55.8211021,49.6788979 56.2026315,49.2973685 L71.3099412,34.1900588 Z"></path></g></g></svg>
